public/img/StipendiumArrow.svg

<svg fill="none" height="125" viewBox="0 0 64 125" width="64" xmlns="http://www.w3.org/2000/svg"><path d="m39.87 117.721c1.6543-.091 2.9212-1.506 2.8297-3.161l-1.4911-26.9585c-.0915-1.6543-1.5068-2.9212-3.1611-2.8297s-2.9213 1.5068-2.8298 3.1611l1.3255 23.9631-23.9634 1.326c-1.6543.091-2.92123 1.506-2.82973 3.161.0915 1.654 1.50673 2.921 3.16113 2.83zm8.0081-112.43389c-18.3533 13.14229-28.4284 26.73479-32.98 39.90429-4.5554 13.1806-3.4696 25.6248-.0604 36.2627 3.3984 10.6038 9.1173 19.4639 13.9379 25.6409 2.4175 3.098 4.628 5.545 6.2419 7.224.8074.841 1.4671 1.49 1.9305 1.935.2317.223.4146.394.5424.513.064.059.1142.105.1499.137.0179.017.0321.029.0427.039.0052.005.0096.009.013.012.0017.001.0035.003.0044.004.0016.001.003.002 2.0039-2.233s2.0018-2.234 2.0025-2.234c-.0001 0 .0003 0 .0001 0-.0003 0-.0016-.001-.0038-.003-.0044-.004-.0125-.011-.0242-.022-.0233-.021-.0609-.056-.1121-.103-.1023-.095-.2589-.241-.4637-.438-.4096-.393-1.0118-.986-1.7591-1.764-1.4958-1.557-3.5671-3.848-5.8383-6.758-4.5568-5.8391-9.8427-14.0724-12.9542-23.7811-3.1006-9.6746-4.0297-20.7617.0175-32.4716 4.0509-11.7211 13.1958-24.3784 30.8023-36.9859z" fill="#3dd7ac"/></svg>

<svg width="64" height="125" viewBox="0 0 64 125" fill="none" xmlns="http://www.w3.org/2000/svg">
<path d="M39.87 117.721C41.5243 117.63 42.7912 116.215 42.6997 114.56L41.2086 87.6015C41.1171 85.9472 39.7018 84.6803 38.0475 84.7718C36.3932 84.8633 35.1262 86.2786 35.2177 87.9329L36.5432 111.896L12.5798 113.222C10.9255 113.313 9.65857 114.728 9.75007 116.383C9.84157 118.037 11.2568 119.304 12.9112 119.213L39.87 117.721ZM47.8781 5.28711C29.5248 18.4294 19.4497 32.0219 14.8981 45.1914C10.3427 58.372 11.4285 70.8162 14.8377 81.4541C18.2361 92.0579 23.955 100.918 28.7756 107.095C31.1931 110.193 33.4036 112.64 35.0175 114.319C35.8249 115.16 36.4846 115.809 36.948 116.254C37.1797 116.477 37.3626 116.648 37.4904 116.767C37.5544 116.826 37.6046 116.872 37.6403 116.904C37.6582 116.921 37.6724 116.933 37.683 116.943C37.6882 116.948 37.6926 116.952 37.696 116.955C37.6977 116.956 37.6995 116.958 37.7004 116.959C37.702 116.96 37.7034 116.961 39.7043 114.726C41.7052 112.491 41.7061 112.492 41.7068 112.492C41.7067 112.492 41.7071 112.492 41.7069 112.492C41.7066 112.492 41.7053 112.491 41.7031 112.489C41.6987 112.485 41.6906 112.478 41.6789 112.467C41.6556 112.446 41.618 112.411 41.5668 112.364C41.4645 112.269 41.3079 112.123 41.1031 111.926C40.6935 111.533 40.0913 110.94 39.344 110.162C37.8482 108.605 35.7769 106.314 33.5057 103.404C28.9489 97.5649 23.663 89.3316 20.5515 79.6229C17.4509 69.9483 16.5218 58.8612 20.569 47.1513C24.6199 35.4302 33.7648 22.7729 51.3713 10.1654L47.8781 5.28711Z" fill="#3DD7AC"/>
</svg>
